X:58
T:James Byrne's
T:Byrne's Quickstep
T:Paddy Hi\'uda\'i's
R:slip jig
H:See also #68 in G
Z:hn-slipjig-58
M:9/8
K:D
dfa afd dcd|Bcd efd cBA|dfa afd dcd|1 Bcd ecA d2A:|2 Bcd ecA def||
|:ecA A/B/cA ecA|d2e fdf agf|ecA A/B/cA ecA|1 d2e fdc def:|2 d2e fdc d2A||

